svgs/duotone/brake-warning.svg

<svg xmlns="http://www.w3.org/2000/svg" viewBox="0 0 640 512"><!-- Font Awesome Pro 6.0.0-alpha2 by @fontawesome - https://fontawesome.com License - https://fontawesome.com/license (Commercial License) --><defs><style>.fa-secondary{opacity:.4}</style></defs><path d="M320 32C196.25 32 96 132.25 96 256S196.25 480 320 480S544 379.75 544 256S443.75 32 320 32ZM296 152C296 138.75 306.75 128 320 128S344 138.75 344 152V264C344 277.25 333.25 288 320 288S296 277.25 296 264V152ZM320 384C302.328 384 288 369.672 288 352C288 334.326 302.328 320 320 320S352 334.326 352 352C352 369.672 337.672 384 320 384Z" class="fa-secondary"/><path d="M320 288C333.25 288 344 277.25 344 264V152C344 138.75 333.25 128 320 128S296 138.75 296 152V264C296 277.25 306.75 288 320 288ZM83.938 75.828C72.719 68.609 57.906 71.875 50.75 83C17.562 134.547 0 194.359 0 256S17.562 377.453 50.75 429C55.344 436.125 63.062 440 70.969 440C75.406 440 79.906 438.766 83.937 436.172C95.094 429 98.281 414.141 91.125 403C62.906 359.219 48 308.391 48 256S62.906 152.781 91.125 109C98.281 97.859 95.094 83 83.938 75.828ZM589.25 83C582.094 71.875 567.25 68.609 556.062 75.828C544.906 83 541.719 97.859 548.875 109C577.094 152.781 592 203.609 592 256S577.094 359.219 548.875 403C541.719 414.141 544.906 429 556.063 436.172C560.094 438.766 564.594 440 569.031 440C576.938 440 584.656 436.125 589.25 429C622.438 377.453 640 317.641 640 256S622.438 134.547 589.25 83ZM320 320C302.328 320 288 334.326 288 352C288 369.672 302.328 384 320 384S352 369.672 352 352C352 334.326 337.672 320 320 320Z" class="fa-primary"/></svg>

<svg xmlns="http://www.w3.org/2000/svg" viewBox="0 0 640 512"><!--! Font Awesome Pro 6.4.0 by @fontawesome - https://fontawesome.com License - https://fontawesome.com/license (Commercial License) Copyright 2023 Fonticons, Inc. --><defs><style>.fa-secondary{opacity:.4}</style></defs><path class="fa-primary" d="M91.1 109c7.2-11.1 4-26-7.2-33.2s-26-4-33.2 7.2C18.6 132.9 0 192.3 0 256s18.6 123.1 50.7 173c7.2 11.1 22 14.4 33.2 7.2s14.4-22 7.2-33.2C63.8 360.6 48 310.2 48 256s15.8-104.6 43.1-147zM589.3 83c-7.2-11.1-22-14.4-33.2-7.2s-14.4 22-7.2 33.2c27.3 42.4 43.1 92.8 43.1 147s-15.8 104.6-43.1 147c-7.2 11.1-4 26 7.2 33.2s26 4 33.2-7.2C621.4 379.1 640 319.7 640 256s-18.6-123.1-50.7-173zM320 128c-13.3 0-24 10.7-24 24V264c0 13.3 10.7 24 24 24s24-10.7 24-24V152c0-13.3-10.7-24-24-24zm32 224a32 32 0 1 0 -64 0 32 32 0 1 0 64 0z"/><path class="fa-secondary" d="M320 480a224 224 0 1 0 0-448 224 224 0 1 0 0 448zm0-352c13.3 0 24 10.7 24 24V264c0 13.3-10.7 24-24 24s-24-10.7-24-24V152c0-13.3 10.7-24 24-24zM288 352a32 32 0 1 1 64 0 32 32 0 1 1 -64 0z"/></svg>
